img/icons/twitter.svg

<svg width="37" height="30" viewBox="0 0 37 30" fill="none" xmlns="http://www.w3.org/2000/svg">
<path d="M36.9231 3.55154C35.55 4.15385 34.0869 4.55308 32.5615 4.74692C34.1308 3.81 35.3285 2.33769 35.8915 0.563077C34.4285 1.43538 32.8131 2.05154 31.0915 2.39538C29.7023 0.916154 27.7223 0 25.5623 0C21.3715 0 17.9977 3.40154 17.9977 7.57154C17.9977 8.17154 18.0485 8.74846 18.1731 9.29769C11.88 8.99077 6.31154 5.97462 2.57077 1.38C1.91769 2.51308 1.53462 3.81 1.53462 5.20615C1.53462 7.82769 2.88462 10.1515 4.89692 11.4969C3.68077 11.4738 2.48769 11.1208 1.47692 10.5646C1.47692 10.5877 1.47692 10.6177 1.47692 10.6477C1.47692 14.3262 4.10077 17.3815 7.54154 18.0854C6.92538 18.2538 6.25385 18.3346 5.55692 18.3346C5.07231 18.3346 4.58308 18.3069 4.12385 18.2054C5.10462 21.2031 7.88769 23.4069 11.1969 23.4785C8.62154 25.4931 5.35154 26.7069 1.81154 26.7069C1.19077 26.7069 0.595385 26.6792 0 26.6031C3.35308 28.7654 7.32692 30 11.6123 30C25.5415 30 33.1569 18.4615 33.1569 8.46C33.1569 8.12538 33.1454 7.80231 33.1292 7.48154C34.6315 6.41538 35.8938 5.08385 36.9231 3.55154Z" fill="#21243D"/>
</svg>

<svg width="37" height="30" fill="none" xmlns="http://www.w3.org/2000/svg"><path d="M36.923 3.552a15.782 15.782 0 0 1-4.361 1.195 7.526 7.526 0 0 0 3.33-4.184 15.126 15.126 0 0 1-4.8 1.832A7.585 7.585 0 0 0 25.561 0c-4.19 0-7.564 3.402-7.564 7.572 0 .6.05 1.176.175 1.726C11.88 8.99 6.312 5.975 2.571 1.38a7.62 7.62 0 0 0-1.036 3.826 7.58 7.58 0 0 0 3.362 6.29 7.475 7.475 0 0 1-3.42-.931v.083c0 3.678 2.624 6.733 6.065 7.437a7.558 7.558 0 0 1-1.985.25c-.485 0-.974-.028-1.433-.13.98 2.998 3.764 5.202 7.073 5.274a15.21 15.21 0 0 1-9.385 3.228c-.621 0-1.217-.028-1.812-.104C3.353 28.765 7.327 30 11.612 30c13.93 0 21.545-11.538 21.545-21.54 0-.335-.012-.658-.028-.978 1.503-1.067 2.765-2.398 3.794-3.93Z" fill="#21243D"/></svg>
